X:1
T:Title
%%score { ( 1 3 ) | ( 2 4 ) }
L:1/8
M:6/8
K:Bb
V:1 treble nm="Grand Piano"
V:3 treble 
V:2 bass 
V:4 bass 
V:1
 z3 z2[Q:1/4=78] [DF]/[DF]/ | [DF][B,D][_DG] [=DF]2 [FB]/[FB]/ | [GB][FA][EG] [DF]2 [DF]/[DF]/ | %3
 FCD EFE | D3- D2 [DF]/[DF]/ | [DF][B,D][_DG] [=DF]2 [FB]/[FB]/ |[M:5/8] [GB][FA][EG] [DF]2 | %7
[M:1/8] [DF]/[DF]/ |[M:3/4] [=EG][EA] [EB]c Fc |[M:5/8] [DB]-[DB]- [DB]3 |[M:1/8] [DF]/[DF]/ | %11
[M:3/4] [DB][DB] [FB][Gc] [GB][EG] | F2- [EF-] [DF]2 [DF]/[DF]/ | GG G[=EG] [EA][EB] | c6 | %15
[M:5/8] [Fd][Ec][DB] [DF]2 |[M:1/8] [DF] |[M:3/4] G^F G B2 A/G/ |[M:13/16] FBcdd3/2c | %19
[M:5/8] B-B- B3 |] %20
V:2
 z3 z2 [B,,B,]/[B,,B,]/ | [B,,B,][B,,F,][B,,=E,] [B,,F,]2 [D,B,]/[D,B,]/ | %2
 [E,B,][E,B,][E,B,] [B,,B,]2 [B,,B,]/[B,,B,]/ | [F,A,C][F,A,][F,B,] [F,A,C][F,A,D][F,A,C] | %4
 [B,,F,B,]3- [B,,F,B,]2 [B,,B,]/[B,,B,]/ | [B,,B,][B,,F,][B,,=E,] [B,,F,]2 [D,B,]/[D,B,]/ | %6
[M:5/8] [E,B,][E,B,][E,B,] [B,,B,]2 |[M:1/8] [B,,B,]/[B,,B,]/ | %8
[M:3/4] [C,B,][C,A,] [C,G,][F,A,E] [F,A,E][F,A,E] |[M:5/8] [B,,B,]-[B,,B,]- [B,,B,]3 | %10
[M:1/8] [B,,B,]/[B,,B,]/ |[M:3/4] [B,,B,][B,,B,] [D,B,][E,B,] [E,B,][E,B,] | %12
 [B,,B,]2 [F,A,] [B,,B,]2 [B,,B,]/[B,,A,]/ | [E,B,E][E,B,E] [E,B,E][C,B,] [C,A,][C,G,] | %14
 [F,A,F]2 [C,G,] [F,A,]2 [B,,B,] |[M:5/8] [B,,B,][B,,B,][B,,F,] [B,,B,]2 |[M:1/8] [B,,B,] | %17
[M:3/4] [E,B,E][E,A,E] [E,B,E] [E,G,E]2 [=E,A,_D]/[E,A,D]/ | %18
[M:13/16] [F,B,D][F,B,D][F,A,E][F,B,F][F,A,F]3/2[F,A,E] |[M:5/8] z A,G, F,2 |] %20
V:3
 x6 | x6 | x6 | x6 | x6 | x6 |[M:5/8] x5 |[M:1/8] x |[M:3/4] x6 |[M:5/8] x5 |[M:1/8] x | %11
[M:3/4] x6 | D2 z2 z2 | x6 | z2 E E2 [DF] |[M:5/8] x5 |[M:1/8] x |[M:3/4] x6 |[M:13/16] x13/2 | %19
[M:5/8] [B,D]FE D2 |] %20
V:4
 x6 | x6 | x6 | x6 | x6 | x6 |[M:5/8] x5 |[M:1/8] x |[M:3/4] x6 |[M:5/8] x5 |[M:1/8] x | %11
[M:3/4] x6 | x6 | x6 | x6 |[M:5/8] x5 |[M:1/8] x |[M:3/4] x6 |[M:13/16] x13/2 | %19
[M:5/8] B,,-B,,- B,,3 |] %20

